X:507
T: Schlemmerlied (211), S. 461
N: T0395
O: Luxemburg
S: Singendes Volk, Esch-Alzette, 1937 posth.]
N: Hoffelt, hhh Michel Hosinger, 1900,
N: mitgeteilt: hhh Heinrich Godefroid (Lehrer)
R: Trink-, Zechlied]
M: 6/8
L: 1/16
K: G
D2 | G2GGAAB2A2A2 | G6z4
A2 | B2A2B2d2c2B2 | A8z2
D2 | B2G2B2d4
B2 | A2G2A2c4
c2 | B2d2B2A2B2A2 | G8z2

@@@ Tune index: 8561
